svgs/sharp-solid/snooze.svg

<svg xmlns="http://www.w3.org/2000/svg" viewBox="0 0 448 512"><!--! Font Awesome Pro 6.6.0 by @fontawesome - https://fontawesome.com License - https://fontawesome.com/license (Commercial License) Copyright 2024 Fonticons, Inc. --><path d="M192 0L160 0l0 64 32 0 33.3 0-57.6 67.2-7.7 9 0 11.8 0 8 0 32 32 0 96 0 32 0 0-64-32 0-33.3 0 57.6-67.2 7.7-9L320 40l0-8 0-32L288 0 192 0zM320 224l-32 0 0 64 32 0 33.3 0-57.6 67.2-7.7 9 0 11.8 0 8 0 32 32 0 96 0 32 0 0-64-32 0-33.3 0 57.6-67.2 7.7-9 0-11.8 0-8 0-32-32 0-96 0zM32 256L0 256l0 64 32 0 98.7 0L9.4 441.4 0 450.7 0 464l0 16 0 32 32 0 160 0 32 0 0-64-32 0-98.7 0L214.6 326.6l9.4-9.4 0-13.3 0-16 0-32-32 0L32 256z"/></svg>

<svg xmlns="http://www.w3.org/2000/svg" viewBox="0 0 448 512"><!--! Font Awesome Pro 6.4.0 by @fontawesome - https://fontawesome.com License - https://fontawesome.com/license (Commercial License) Copyright 2023 Fonticons, Inc. --><path d="M192 0H160V64h32 33.3l-57.6 67.2-7.7 9V152v8 32h32 96 32V128H288 254.7l57.6-67.2 7.7-9V40 32 0H288 192zM320 224H288v64h32 33.3l-57.6 67.2-7.7 9V376v8 32h32 96 32V352H416 382.7l57.6-67.2 7.7-9V264v-8V224H416 320zM32 256H0v64H32h98.7L9.4 441.4 0 450.7V464v16 32H32 192h32V448H192 93.3L214.6 326.6l9.4-9.4V304 288 256H192 32z"/></svg>
